X:64
T:Farmer's son so sweet - Easterbrook
%%VWML:SBG-1-2-128-0
F:http://www.vwml.org/record/SBG/1/2/128
Z:Original Sibelius transcriptions by M. & S. Graebe
M:4/4
I:linebreak $
K:G
V:1 treble nm="P1"
V:1
 D | D G G G | G3 A | B B B d | (d c) (B A) | G F A d |$ B3 G | F D E ^C | D2 z F/G/ | A A A A | %10
 B2 z B/c/ |$ d d B d | (g f) (g f) | e d c B | !fermata!e2 z c | B G A F | G2 x2 | %17
T:Farmer's son so sweet - Fone
F:http://www.vwml.org/record/SBG/1/2/128
Z:Original Sibelius transcriptions by M. & S. Graebe
M:4/4
I:linebreak $
K:C
V:1 treble nm="P1"
V:1
 G/A/B/ | c c e d/c/4d/4 | c3 c | d g f e/d/ | e3 g |$ d B d (3e/d/c/ | g3 d/>c/ | B G A G/^F/ | %8
"^2nd part deficient" G2 x2 | %9

